X: 29430
T: Nighean Na Cailliche Crotaiche Crubaich
R: jig
M: 6/8
K: Amajor
|:cBA AAA|cde f2e|faa ece|fBB B2a|
cBA AAA|cde f2e|faac2B|cBA A2[1a:|2 e||
|:faaf2e|faa f2e|faa ece|
[1fBB B2e|faaf2e|faa f2e|faa c2B|cBA A2e:|
[2fBB B2a|cBA AAA|cde f2e|faac2B|cBA A2a||

